Flat-Remix-Blue/mimetypes/scalable/text-x-python.svg

<svg xmlns="http://www.w3.org/2000/svg" xmlns:xlink="http://www.w3.org/1999/xlink" width="36pt" height="36pt" version="1.1" viewBox="0 0 36 36"> <defs> <clipPath id="clip1"> <path d="M 20 2 L 31 2 L 31 13 L 20 13 Z M 20 2"/> </clipPath> <clipPath id="clip2"> <path d="M 20.515625 2.625 L 30.328125 12.4375 L 22.023438 12.4375 C 21.292969 12.4375 20.515625 11.660156 20.515625 10.929688 Z M 20.515625 2.625"/> </clipPath> <image id="image6" width="36" height="36" xlink:href="data:image/png;base64,iVBORw0KGgoAAAANSUhEUgAAACQAAAAkCAYAAADhAJiYAAAABmJLR0QA/wD/AP+gvaeTAAAAmklEQVRYhe3T0QqCQBBG4aOtYEoUvf9Lildltl00C4tkbBeTIP+BAUEYP1YW1Pcqh53B9kbgaVPcwQF0tAmGSrMZ6AKcDQXw+AUVHEAtcAUaewYYgYmC3+cBCkAPnDJQMcoDVNnebgEqQnmAclTz4d0I3P4JStc9AjXvk4qLWQV53LLeEOl05gw4A3dgcPiuUkoppZRSSqk99gLWvSJpuDnlsAAAAABJRU5ErkJggg=="/> </defs> <g> <path style="fill:rgb(14.901%,35.294%,69.411%)" d="M 7.347656 3.152344 C 6.675781 3.152344 6.042969 3.785156 6.042969 4.457031 L 6.042969 31.847656 C 6.042969 32.480469 6.714844 33.152344 7.347656 33.152344 L 28.21875 33.152344 C 28.851562 33.152344 29.523438 32.480469 29.523438 31.847656 L 29.523438 11.632812 L 21.042969 3.152344 Z M 7.347656 3.152344"/> <path style="fill:rgb(100.000%,100.000%,100.000%)" d="M 18.140625 12.128906 C 17.613281 12.132812 17.097656 12.175781 16.652344 12.253906 C 15.34375 12.480469 15.0625 12.550781 15.0625 13.433594 L 15.0625 15.390625 L 18.324219 15.390625 L 18.324219 16.042969 L 13.757812 16.042969 C 12.855469 16.042969 12.269531 16.59375 12.023438 17.613281 C 11.738281 18.78125 11.726562 19.511719 12.023438 20.730469 C 12.242188 21.640625 12.855469 22.566406 13.753906 22.566406 L 14.40625 22.566406 L 14.40625 20.609375 C 14.40625 19.597656 15.316406 18.652344 16.367188 18.652344 L 19.628906 18.652344 C 20.488281 18.652344 20.933594 18.203125 20.933594 17.347656 L 20.933594 14.085938 C 20.933594 13.253906 20.589844 12.390625 19.75 12.253906 C 19.21875 12.164062 18.667969 12.128906 18.140625 12.128906 Z M 17.019531 13.433594 C 17.378906 13.433594 17.671875 13.726562 17.671875 14.085938 C 17.671875 14.445312 17.378906 14.738281 17.019531 14.738281 C 16.660156 14.738281 16.367188 14.445312 16.367188 14.085938 C 16.367188 13.726562 16.660156 13.433594 17.019531 13.433594 Z M 17.019531 13.433594"/> <path style="fill:rgb(100.000%,100.000%,100.000%)" d="M 17.859375 25.824219 C 18.386719 25.824219 18.902344 25.78125 19.347656 25.703125 C 20.65625 25.472656 20.9375 25.40625 20.9375 24.523438 L 20.9375 22.566406 L 17.675781 22.566406 L 17.675781 21.914062 L 22.242188 21.914062 C 23.144531 21.914062 23.730469 21.363281 23.976562 20.34375 C 24.261719 19.175781 24.273438 18.445312 23.976562 17.226562 C 23.757812 16.316406 23.144531 15.390625 22.242188 15.390625 L 21.589844 15.390625 L 21.589844 17.347656 C 21.589844 18.359375 20.683594 19.304688 19.632812 19.304688 L 16.371094 19.304688 C 15.507812 19.304688 15.066406 19.75 15.066406 20.609375 L 15.066406 23.871094 C 15.066406 24.703125 15.40625 25.566406 16.246094 25.703125 C 16.78125 25.792969 17.328125 25.828125 17.859375 25.824219 Z M 18.980469 24.523438 C 18.621094 24.523438 18.328125 24.230469 18.328125 23.871094 C 18.328125 23.507812 18.621094 23.21875 18.980469 23.21875 C 19.339844 23.21875 19.632812 23.507812 19.632812 23.871094 C 19.632812 24.230469 19.339844 24.523438 18.980469 24.523438 Z M 18.980469 24.523438"/> <g clip-path="url(#clip1)"> <g clip-path="url(#clip2)"> <use xlink:href="#image6"/> </g> </g> <path style="fill:rgb(23.137%,54.509%,72.156%)" d="M 21.042969 3.152344 L 29.523438 11.632812 L 22.347656 11.632812 C 21.714844 11.632812 21.042969 10.960938 21.042969 10.328125 Z M 21.042969 3.152344"/> </g> </svg>

<svg width="36pt" height="36pt" version="1.1" viewBox="0 0 36 36" xmlns="http://www.w3.org/2000/svg"><defs><filter id="a" x="-.192" y="-.192" width="1.384" height="1.384" color-interpolation-filters="sRGB"><feGaussianBlur stdDeviation="0.67843748"/></filter></defs><path d="m7.3477 3.1523c-0.67188 0-1.3047 0.63281-1.3047 1.3047v27.391c0 0.63281 0.67188 1.3047 1.3047 1.3047h20.871c0.63281 0 1.3047-0.67188 1.3047-1.3047v-20.215l-8.4805-8.4805z" fill="#2559b0"/><path d="m18.141 12.129c-0.52734 0.003906-1.043 0.046875-1.4883 0.125-1.3086 0.22656-1.5898 0.29688-1.5898 1.1797v1.957h3.2617v0.65234h-4.5664c-0.90234 0-1.4883 0.55078-1.7344 1.5703-0.28516 1.168-0.29688 1.8984 0 3.1172 0.21875 0.91016 0.83203 1.8359 1.7305 1.8359h0.65234v-1.957c0-1.0117 0.91016-1.957 1.9609-1.957h3.2617c0.85938 0 1.3047-0.44922 1.3047-1.3047v-3.2617c0-0.83203-0.34375-1.6953-1.1836-1.832-0.53125-0.089844-1.082-0.125-1.6094-0.125zm-1.1211 1.3047c0.35938 0 0.65234 0.29297 0.65234 0.65234 0 0.35937-0.29297 0.65234-0.65234 0.65234s-0.65234-0.29297-0.65234-0.65234c0-0.35938 0.29297-0.65234 0.65234-0.65234z" fill="#fff"/><path d="m17.859 25.824c0.52734 0 1.043-0.042969 1.4883-0.12109 1.3086-0.23047 1.5898-0.29688 1.5898-1.1797v-1.957h-3.2617v-0.65234h4.5664c0.90234 0 1.4883-0.55078 1.7344-1.5703 0.28516-1.168 0.29688-1.8984 0-3.1172-0.21875-0.91016-0.83203-1.8359-1.7344-1.8359h-0.65234v1.957c0 1.0117-0.90625 1.957-1.957 1.957h-3.2617c-0.86328 0-1.3047 0.44531-1.3047 1.3047v3.2617c0 0.83203 0.33984 1.6953 1.1797 1.832 0.53516 0.089844 1.082 0.125 1.6133 0.12109zm1.1211-1.3008c-0.35938 0-0.65234-0.29297-0.65234-0.65234 0-0.36328 0.29297-0.65234 0.65234-0.65234s0.65234 0.28906 0.65234 0.65234c0 0.35938-0.29297 0.65234-0.65234 0.65234z" fill="#fff"/><path d="m20.668 3.5272 8.4805 8.4805h-7.1758c-0.63281 0-1.3047-0.67187-1.3047-1.3047z" filter="url(#a)" opacity=".2"/><path d="m21.043 3.1523 8.4805 8.4805h-7.1758c-0.63281 0-1.3047-0.67187-1.3047-1.3047z" fill="#3a8ab7"/></svg>
